src/shared/svg/sidebar/Favoris.svg

<svg width="20" height="20" viewBox="0 0 20 20" fill="none" xmlns="http://www.w3.org/2000/svg">
<path d="M9.99658 1C10.316 1 10.6077 1.18229 10.7466 1.46944L13.1285 6.375L18.4514 7.16319C18.7639 7.20833 19.0209 7.42708 19.1216 7.72569C19.2188 8.02778 19.1389 8.35764 18.9167 8.57639L15.0556 12.4028L15.9688 17.8021C16.0209 18.1146 15.8924 18.434 15.632 18.6181C15.375 18.8021 15.0035 18.8264 14.7535 18.6771L9.99658 16.1354L5.21186 18.6771C4.96186 18.8264 4.62158 18.8021 4.36116 18.6181C4.10422 18.434 3.97575 18.1146 3.99658 17.8021L4.93755 12.4028L1.08026 8.57639C0.855957 8.35764 0.776443 8.02778 0.875054 7.72569C0.973318 7.42708 1.23269 7.20833 1.54485 7.16319L6.86463 6.375L9.24658 1.46944C9.38894 1.18226 9.67713 1 9.99658 1ZM9.99658 3.74132L8.17366 7.5C8.05213 7.74653 7.81602 7.92014 7.54519 7.96181L3.43686 8.56597L6.42019 11.5208C6.61116 11.7118 6.69797 11.9861 6.65283 12.2535L5.95144 16.4063L9.60422 14.4549C9.85075 14.3229 10.1459 14.3229 10.3889 14.4549L14.0417 16.4063L13.3403 12.2535C13.2952 11.9861 13.3855 11.7118 13.5764 11.5208L16.5591 8.56597L12.4514 7.96181C12.1771 7.92014 11.941 7.74653 11.823 7.5L9.99658 3.74132Z" fill="#8A8DBA"/>
</svg>

<svg width="20" height="20" viewBox="0 0 20 20" fill="none" xmlns="http://www.w3.org/2000/svg"><path d="M9.997 1c.319 0 .61.182.75.47l2.382 4.905 5.322.788c.313.045.57.264.67.563a.835.835 0 0 1-.204.85l-3.861 3.827.913 5.4a.832.832 0 0 1-.337.815c-.257.184-.628.208-.878.06l-4.757-2.543-4.785 2.542c-.25.15-.59.125-.85-.059a.928.928 0 0 1-.365-.816l.94-5.4L1.08 8.577a.831.831 0 0 1 .465-1.413l5.32-.788L9.247 1.47a.837.837 0 0 1 .75-.47Zm0 2.741L8.174 7.5a.847.847 0 0 1-.629.462l-4.108.604 2.983 2.955a.84.84 0 0 1 .233.732l-.702 4.153 3.653-1.951a.827.827 0 0 1 .785 0l3.653 1.951-.702-4.152a.843.843 0 0 1 .236-.733l2.983-2.955-4.108-.604a.835.835 0 0 1-.628-.462L9.997 3.741Z" fill="#8A8DBA"/></svg>
